X: 376
T: Beaumont Rag
C:Jimmy Gaudreau version
B: jims roots
B: ralph
M:4/4
L:1/8
Q: 1/4=100
K:D
V:1 
xef | "A7"gegf efe=c | ^cecB ABA=f | "D"^f2f=f edBc| dBAF (3EFE DF |
"A7"ECA,B, CDEF | GABA AF (3EFE | "D"DFAd ccAc | BAGB A2ef ||
"A7"gafg efde| cdBc AcBA | "D"GBAG FGAB | =cBAG FDEF |
"G"GFGA Bcde | "D"fedf edAa | "A"Aba=f  ^fdBA |"D"d2 [Fd][Fd] [Fd]AAB ||
"A"ccac cbcc | accb cc_bz | "D"ddad dbdd | addb zdd2 |
"A"ac=cB g2e=f | ^fdBA dBA2 | "D""Stop"!slide!A2=c2 cA^GA | =cAc^G AcAc |
"A"^ceBB AecA  | GBAG FGAB | "D"=cdBc AcBA | GBAG FEDB, |
"G"A,B,G,A, B,DEF | "D"GABc dee(=f | "A"^f)ag=f ^fdBA | "D"d2 dd z4 ||
% abcbook-tune_id 6298c245fe7dc1015142ae04


% abcbook-boost 0
% abcbook-tablature 
% abcbook-transpose 
% abcbook-lastupdated 1665486318557
% abcbook-soundfonts 
% abcbook-repeats 1


